src/app/assets/icons/network-intelligence.svg

<svg width="24" height="24" viewBox="0 0 24 24" fill="none" xmlns="http://www.w3.org/2000/svg">
<path d="M6.71352 19.0807L6.71354 19.0807L6.71324 19.0802L4.77369 15.6238H6.19462L7.19116 17.6169L7.17734 17.6238H7.20234H9.50234H9.51484V17.6113V16.6113V16.5988H9.50234H7.81007L6.81352 14.6057L6.82734 14.5988H6.80234H4.20961L2.78863 12.1059C2.75556 12.0232 2.72663 11.9404 2.70182 11.8577C2.67715 11.7755 2.66484 11.6934 2.66484 11.6113C2.66484 11.5797 2.67487 11.5228 2.69572 11.4394C2.7164 11.3566 2.74744 11.249 2.78887 11.1163L4.20961 8.62383H6.80234V8.63928L6.81352 8.61692L7.81007 6.62383H9.50234H9.51484V6.61133V5.61133V5.59883H9.50234H7.20234V5.58338L7.19116 5.60574L6.19462 7.59883H4.77369L6.71324 4.14245L6.71326 4.14245L6.71352 4.14192C6.79579 3.97739 6.91493 3.85006 7.07111 3.75965C7.22753 3.66908 7.3962 3.62383 7.57734 3.62383H10.0023C10.2825 3.62383 10.5168 3.71846 10.706 3.90767C10.8952 4.09687 10.9898 4.33114 10.9898 4.61133V8.59883H9.50234V8.59365L9.49351 8.60249L8.49351 9.60249L8.47217 9.62383H8.50234H10.9898V12.5988H8.81007L7.81352 10.6057L7.82734 10.5988H7.80234H5.50234V10.5937L5.49351 10.6025L4.4935 11.6025L4.47217 11.6238H4.50234H7.19462L8.19116 13.6169L8.17734 13.6238H8.20234H10.9898V18.6113C10.9898 18.8915 10.8952 19.1258 10.706 19.315C10.5168 19.5042 10.2825 19.5988 10.0023 19.5988H7.57734C7.3962 19.5988 7.22753 19.5536 7.07111 19.463C6.91493 19.3726 6.79579 19.2453 6.71352 19.0807ZM12.0148 18.6113V13.6238H14.8023V13.6393L14.8135 13.6169L15.8101 11.6238H18.5023H18.5325L18.5112 11.6025L17.5112 10.6025L17.5148 10.5988H17.5023H15.2023V10.5834L15.1912 10.6057L14.1946 12.5988H12.0148V9.62383H14.5023H14.5325L14.5112 9.60249L13.5112 8.60249L13.5148 8.59883H13.5023H12.0148V4.61133C12.0148 4.33114 12.1095 4.09687 12.2987 3.90767C12.4879 3.71846 12.7222 3.62383 13.0023 3.62383H15.4273C15.6085 3.62383 15.7772 3.66908 15.9336 3.75965C16.0898 3.85006 16.2089 3.97739 16.2912 4.14192L16.2912 4.14192L16.2914 4.14245L18.231 7.59883H16.8101L15.8135 5.60574L15.8273 5.59883H15.8023H13.5023H13.4898V5.61133V6.61133V6.62383H13.5023H15.1946L16.1912 8.61692L16.1773 8.62383H16.2023H18.7951L20.2161 11.1168C20.2491 11.1995 20.2781 11.2822 20.3029 11.3649C20.3275 11.4471 20.3398 11.5293 20.3398 11.6113C20.3398 11.6429 20.3298 11.6999 20.309 11.7833C20.2883 11.866 20.2572 11.9737 20.2158 12.1063L18.7951 14.5988H16.2023V14.5834L16.1912 14.6057L15.1946 16.5988H13.5023H13.4898V16.6113V17.6113V17.6238H13.5023H15.8023V17.6393L15.8135 17.6169L16.8101 15.6238H18.231L16.2914 19.0802L16.2914 19.0802L16.2912 19.0807C16.2089 19.2453 16.0898 19.3726 15.9336 19.463C15.7772 19.5536 15.6085 19.5988 15.4273 19.5988H13.0023C12.7222 19.5988 12.4879 19.5042 12.2987 19.315C12.1095 19.1258 12.0148 18.8915 12.0148 18.6113Z" fill="currentColor" stroke="currentColor" stroke-width="0.025"/>
</svg>

<svg xmlns="http://www.w3.org/2000/svg" width="24" height="24" fill="none"><path fill="currentColor" stroke="currentColor" stroke-width=".025" d="m6.714 19.08-1.94-3.456h1.42l.997 1.993-.014.007h2.338v-1.025H7.81l-.996-1.993.013-.007H4.21l-1.421-2.493a3 3 0 0 1-.087-.248 1 1 0 0 1-.037-.247q0-.046.03-.172.031-.123.094-.323l1.42-2.492h2.593v.015l.012-.022.996-1.993h1.705V5.599H7.202v-.016l-.01.023-.997 1.993H4.774l1.94-3.457a.9.9 0 0 1 .357-.382 1 1 0 0 1 .506-.136h2.425q.42 0 .704.284.284.283.284.703V8.6H9.502v-.005l-.008.008-1 1-.022.022h2.518V12.6H8.81l-.996-1.993.013-.007H5.502v-.005l-.008.008-1 1-.022.022h2.723l.996 1.993-.014.007h2.813v4.987q0 .42-.284.704a.96.96 0 0 1-.704.284H7.577a1 1 0 0 1-.506-.136.9.9 0 0 1-.357-.382Zm5.3-.469v-4.987h2.788v.015l.011-.022.997-1.993h2.722l-.02-.022-1-1 .003-.003h-2.313v-.016l-.01.023-.997 1.993h-2.18V9.624h2.517l-.02-.022-1-1 .003-.003h-1.5V4.61q0-.42.284-.703a.96.96 0 0 1 .703-.284h2.425q.271 0 .507.136.234.135.357.382l1.94 3.457h-1.42l-.998-1.993.014-.007H13.49v1.025h1.705l.996 1.993-.014.007h2.618l1.421 2.493q.05.123.087.248a1 1 0 0 1 .037.246 1 1 0 0 1-.031.172q-.03.124-.093.323l-1.42 2.493h-2.594v-.016l-.01.023-.997 1.993H13.49v1.025h2.312v.015l.011-.022.997-1.993h1.421l-1.94 3.456a.9.9 0 0 1-.357.383 1 1 0 0 1-.507.136h-2.425a.96.96 0 0 1-.703-.284.96.96 0 0 1-.284-.704Z"/></svg>
